!!!!SEGMENT: pl-kk--kk-i-363--001_anonim--pro-festis-conceptio-tua.krn
!!!cenid: 17xx:1963
!!!COM: Anonim
!!!COM-rismID: pe30004985
!!!CDT:
!!!CNT:
!!!OPR: Pro festis
!!!OTL: Conceptio tua
!!!OMV: 001
!!!PDT:
!!!AGN: Sacred
!!!SMS-siglum: PL-Kk
!!!SMS-shelfmark: Kk.I.363
!!!SMS-shelfwork: 001-001 M
!!!SMS-variant:
!!!SMS-altvar:
!!!NIFC-rismSourceID: 1001144503
!!!NIFC-islandoraID: pl-kk:5993
!!!URL-pdf-islandora: https://repozytorium.nifc.pl/islandora/object/pl-kk%3A5993/datastream/PDF/view
!!!URL-scan: https://polish.musicsources.pl/pl/lokalizacje/galeria/rekopisy/5978 @EN{Scan on Polish Music Herritage in Open Access Website} @PL{Skany w portalu Dziedzictwo Muzyki Polskiej w otwartym dostępie}
!!!ONB-nifc: UWAGA: części: 1. Conceptio tua, 2. Sub tuum praesidium, 3. Tradent enim vos
!!!AIN: 1 bass
!!!key:
**kern	**text	**text
*Ibass	*	*
*I"Basso	*	*
*I'B	*	*
*clefF4	*	*
*k[b-]	*	*
*g:	*	*
*M2/1	*	*
*met(C|)	*	*
=1-	=1-	=1-
!LO:TX:a:t=Pro Festis Conceptionis et Nativitatis B. V. M.	!	!
!LO:TX:a:t=P:problem=znaki BB- B-	!	!
!LO:TX:t=P:problem=kreska pseudotaktowa	!	!
1D	Con-	Na-
*2\right	*	*
2.E-X\	-ce-	-ti-
!LO:TX:t=P:problem=kreska pseudotaktowa	!	!
4E-\	-pti-	-vi-
=2-	=2-	=2-
2D,</	-o	-tas
1G	Tu-	.
!LO:TX:t=P:problem=kreska pseudotaktowa	!	!
2F\	.	.
=3-	=3-	=3-
*lig	*	*
0E-X	.	.
=4-	=4-	=4-
0D	.	.
*Xlig	*	*
=5-	=5-	=5-
!LO:TX:t=P:problem=kreska pseudotaktowa	!	!
1GG	-a	.
2GG/	Con-	.
2.G\	-ce-	.
=6-	=6-	=6-
.	.	.
4G\	-pti-	.
!LO:TX:t=P:problem=kreska pseudotaktowa	!	!
2F\	-o	.
1B-X	Tu-	.
=7-	=7-	=7-
!LO:TX:t=P:problem=kreska pseudotaktowa	!	!
1A,<	-a	.
1.D	De-	.
=8-	=8-	=8-
.	.	.
!LO:TX:t=P:problem=kreska pseudotaktowa	!	!
2C#X/	-i	.
2.D/	Ge-	.
!LO:TX:t=P:problem=kreska pseudotaktowa	!	!
4Cn/	.	.
=9-	=9-	=9-
4BB-/	.	.
4GG/	.	.
!LO:TX:t=P:problem=kreska pseudotaktowa	!	!
[<2G\	.	.
!LO:LB:g=original	!	!
!LO:TX:a:t=P:problem=brak zakończenia ligatury	!	!
4G\]	.	.
!LO:TX:t=P:problem=kreska pseudotaktowa	!	!
2F#X\	-ni-	.
2G\	-trix	.
=10-	=10-	=10-
.	.	.
2GG/	Vir-	.
!LO:TX:t=P:problem=kreska pseudotaktowa	!	!
1D	-go	.
!LO:TX:t=P:problem=kreska pseudotaktowa	!	!
0r	.	.
=11-	=11-	=11-
.	.	.
2.D\	De-	.
=12-	=12-	=12-
.	.	.
!LO:TX:t=P:problem=kreska pseudotaktowa	!	!
4D\	-i	.
2.E-X\	Ge-	.
!LO:TX:t=P:problem=kreska pseudotaktowa	!	!
4E-\	-ni-	.
2D,</	-trix	.
=13-	=13-	=13-
.	.	.
1D	De-	.
!LO:TX:t=P:problem=kreska pseudotaktowa	!	!
2Cn/	-i	.
2BB-/	Ge-	.
=14-	=14-	=14-
.	.	.
4AA/	.	.
4GG/	.	.
2.D/	.	.
4D/	-ni-	.
!LO:TX:t=P:problem=kreska pseudotaktowa	!	!
1AA	-trix	.
=15-	=15-	=15-
.	.	.
2.BB-/	Vir-	.
4C/	.	.
!LO:TX:t=P:problem=kreska pseudotaktowa	!	!
1D	.	.
=16-	=16-	=16-
.	.	.
1GG	-go.	.
!LO:LB:g=original	!	!
=17||	=17||	=17||
*M3/2	*	*
2.G\	Gau-	.
.	.	.
4G\	-di-	.
!LO:TX:t=P:problem=kreska pseudotaktowa	!	!
2D/	-um	.
=18-	=18-	=18-
2E-X\	an-	.
2C/	-nun-	.
!LO:TX:t=P:problem=kreska pseudotaktowa	!	!
2BB-/	-ti-	.
=19-	=19-	=19-
!LO:TX:t=P:problem=kreska pseudotaktowa	!	!
1.F	-a-	.
=20-	=20-	=20-
!LO:TX:t=P:problem=kreska pseudotaktowa	!	!
1.BB-,<	-vit	.
=21-	=21-	=21-
2.B-\	U-	.
4A\	-ni-	.
!LO:TX:t=P:problem=kreska pseudotaktowa	!	!
2G\	-ver-	.
=22-	=22-	=22-
2F\	-ſo	.
1C	mun-	.
=23-	=23-	=23-
!LO:TX:t=P:problem=kreska pseudotaktowa	!	!
1.F,<	-do.	.
=24-	=24-	=24-
2.F\	Gau-	.
4F\	-di-	.
!LO:TX:t=P:problem=kreska pseudotaktowa	!	!
2C/	-u(m)	.
=25-	=25-	=25-
2D/	an-	.
2BB-/	-nun-	.
!LO:TX:t=P:problem=kreska pseudotaktowa	!	!
2FF#X/	-ti-	.
=26-	=26-	=26-
!LO:TX:t=P:problem=kreska pseudotaktowa	!	!
1.GG	-a-	.
=27-	=27-	=27-
*custos:BB	*	*
!LO:TX:t=P:problem=kreska pseudotaktowa	!	!
1.D,<	-vit	.
!LO:LB:g=original	!	!
=28-	=28-	=28-
*	*ij	*
2.BB-/	Gau-	.
4BB-/	-di-	.
!LO:TX:t=P:problem=kreska pseudotaktowa	!	!
2F\	-u(m)	.
=29-	=29-	=29-
2G\	an-	.
2E-X\	-nun-	.
!LO:TX:t=P:problem=kreska pseudotaktowa	!	!
2C/	-ti-	.
=30-	=30-	=30-
!LO:TX:t=P:problem=kreska pseudotaktowa	!	!
1.G	-a-	.
=31-	=31-	=31-
!LO:TX:t=P:problem=kreska pseudotaktowa	!	!
1.C,<	-vit	.
*	*Xij	*
=32-	=32-	=32-
2.C/	u-	.
4BB-/	-ni-	.
!LO:TX:t=P:problem=kreska pseudotaktowa	!	!
2AA/	-ver-	.
=33-	=33-	=33-
2GG/	-so	.
!LO:TX:t=P:problem=kreska pseudotaktowa	!	!
1D	mun-	.
=34-	=34-	=34-
0.GG	-do.	.
=35||	=35||	=35||
*M2/1	*	*
*met(c)	*	*
2r	.	.
4.C/	Ex	.
!LO:TX:t=P:problem=kreska pseudotaktowa	!	!
8C/	Te	.
2F\	e-	.
!LO:TX:t=P:problem=kreska pseudotaktowa	!	!
2D\	-nim	.
=36-	=36-	=36-
4G\	or-	.
8G,<\	-t(us)	.
8F\	est	.
*custos:E-	*	*
!LO:TX:t=P:problem=kreska pseudotaktowa	!	!
[<2E-X\	Sol	.
!LO:LB:g=original	!	!
!LO:TX:a:t=P:problem=brak zakończenia ligatury	!	!
2E-X\]	.	.
!LO:TX:t=P:problem=kreska pseudotaktowa	!	!
2E-\	Ju-	.
=37-	=37-	=37-
1.F	-sti-	.
!LO:TX:t=P:problem=kreska pseudotaktowa	!	!
2F\	-ti-	.
=38-	=38-	=38-
4BB-,</	-ae	.
2B-\	X-	.
!LO:TX:t=P:problem=kreska pseudotaktowa	!	!
4F\	-t(us)	.
4.G\	DE-	.
8G\	-(us)	.
!LO:TX:t=P:problem=kreska pseudotaktowa	!	!
2A\	nos-	.
=39-	=39-	=39-
4D,</	-ter	.
2D/	X-	.
!LO:TX:t=P:problem=kreska pseudotaktowa	!	!
4AA/	-t(us)	.
8BB-/L	DE-	.
8C/	.	.
8D/	.	.
8E/J	.	.
8F\L	.	.
8G\	.	.
8A\	.	.
!LO:TX:t=P:problem=kreska pseudotaktowa	!	!
8F\J	.	.
=40-	=40-	=40-
!LO:TX:t=P:problem=mixed beam	!	!
8G\L	.	.
8GG/	.	.
8BB-/	.	.
8GG/J	.	.
8D\L	.	.
8E\J	.	.
!LO:TX:t=P:problem=kreska pseudotaktowa	!	!
4F\	.	.
4C,</	-US	.
2C/	X-	.
!LO:TX:t=P:problem=kreska pseudotaktowa	!	!
4BB-/	-t(us)	.
!LO:LB:g=original	!	!
=41-	=41-	=41-
4AA/	DE-	.
4GG/	-(us)	.
!LO:TX:t=P:problem=kreska pseudotaktowa	!	!
2D\	nos-	.
!LO:TX:t=P:problem=kreska pseudotaktowa	!	!
1GG,<	-ter.	.
=42-	=42-	=42-
2D\	Qui	.
!LO:TX:t=P:problem=kreska pseudotaktowa	!	!
2Fn\	sol-	.
4En,<\	-vens	.
4.C/	ma-	.
8D\	-le-	.
8En\	-di-	.
!LO:TX:t=P:problem=kreska pseudotaktowa	!	!
8F\	-cti-	.
=43-	=43-	=43-
2G\	-o-	.
!LO:TX:t=P:problem=kreska pseudotaktowa	!	!
2D,</	-nem	.
*	*ij	*
2AA/	Qui	.
!LO:TX:t=P:problem=kreska pseudotaktowa	!	!
2Cn/	sol-	.
=44-	=44-	=44-
4GG,</	-vens	.
8.BB-/	ma-	.
16C/	-le-	.
8.D\	-di-	.
16E\	-cti	.
2F\	-o-	.
4En\	.	.
!LO:TX:t=P:problem=kreska pseudotaktowa	!	!
2D/	.	.
=45-	=45-	=45-
2C/	.	.
2BB-,</	-nem	.
*	*Xij	*
!LO:LB:g=original	!	!
!LO:TX:t=P:problem=kreska pseudotaktowa	!	!
1r	.	.
=46-	=46-	=46-
2r	.	.
4r	.	.
!LO:TX:t=P:problem=kreska pseudotaktowa	!	!
4C/	Qui	.
2E-X\	sol-	.
4D,</	-vens	.
!LO:TX:t=P:problem=kreska pseudotaktowa	!	!
[4D/	ma-	.
=47-	=47-	=47-
!LO:N:xstem:cue	!	!
8D/]	.	.
8C/	-le-	.
8AA/	-di-	.
8BB-/	-cti-	.
!LO:TX:t=P:problem=kreska pseudotaktowa	!	!
2C/	-o-	.
4GG,</	-nem	.
4.G\	ma-	.
8A\	-le-	.
8B-\	-di-	.
!LO:TX:t=P:problem=kreska pseudotaktowa	!	!
8G\	-cti-	.
=48-	=48-	=48-
4A\	-o-	.
8G\L	.	.
8F\J	.	.
8En\L	.	.
8D\J	.	.
!LO:TX:t=P:problem=kreska pseudotaktowa	!	!
4E\	.	.
2D,</	-nem	.
!LO:TX:t=P:problem=kreska pseudotaktowa	!	!
2AA/	Qui	.
=49-	=49-	=49-
2BB-/	sol-	.
!LO:TX:t=P:problem=kreska pseudotaktowa	!	!
2AA/	-vens	.
4.D\	ma-	.
*custos:F	*	*
8E\	-le-	.
!LO:LB:g=original	!	!
8F\	-di-	.
8G\	-cti-	.
8A\L	-o-	.
!LO:TX:t=P:problem=kreska pseudotaktowa	!	!
8G\J	.	.
=50-	=50-	=50-
8F#X\L	.	.
8D\J	.	.
2G\	.	.
!LO:TX:t=P:problem=kreska pseudotaktowa	!	!
4Fn\	.	.
8G\L	.	.
8A\J	.	.
8B-\L	.	.
16c\L	.	.
16B-\JJ	.	.
!LO:TX:t=P:problem=kreska pseudotaktowa	!	!
2A\	.	.
=51-	=51-	=51-
2G,<\	-nem	.
!LO:TX:t=P:problem=kreska pseudotaktowa	!	!
2D/	de-	.
4En,<\	-cit	.
8.E\	be-	.
16F\	-ne-	.
8G\	-di-	.
8D\	-cti-	.
2G\	-o-	.
=52-	=52-	=52-
.	.	.
4Fn\	.	.
!LO:TX:t=P:problem=kreska pseudotaktowa	!	!
2G,<\	-nem	.
2GG/	Qui	.
4BB-X/	sol-	.
*custos:AA	*	*
!LO:TX:t=P:problem=kreska pseudotaktowa	!	!
4BB-/	-vens	.
!LO:PB:g=original	!	!
=53-	=53-	=53-
8AA/	ma-	.
8GG/	-le-	.
8AA/	-di-	.
8BB-/	-cti-	.
!LO:TX:t=P:problem=kreska pseudotaktowa	!	!
2C/	-o-	.
2GG,</	-nem	.
!LO:TX:t=P:problem=kreska pseudotaktowa	!	!
2D/	de-	.
=54-	=54-	=54-
4C,</	-dit	.
8.C/	be-	.
16C/	-ne-	.
4.BB-/	-di-	.
!LO:TX:t=P:problem=kreska pseudotaktowa	!	!
8BB-/	-cti-	.
2AA/	-o-	.
4GG,</	-ne(m)	.
8.BB-/	be-	.
!LO:TX:t=P:problem=kreska pseudotaktowa	!	!
16C/	-ne-	.
=55-	=55-	=55-
4D/	-di-	.
4GG/	-cti-	.
2D/	-o-	.
0GG;	-n(em).	.
=56||	=56||	=56||
*M3/2	*	*
2.G\	Et	.
4F\	con-	.
!LO:TX:t=P:problem=kreska pseudotaktowa	!	!
2E-X\	-fun-	.
=57-	=57-	=57-
2D\	-dens	.
!LO:TX:t=P:problem=kreska pseudotaktowa	!	!
1F	mor-	.
=58-	=58-	=58-
!LO:TX:t=P:problem=kreska pseudotaktowa	!	!
1.BB-,<	-tem	.
=59-	=59-	=59-
2.B-\	et	.
4A\	con-	.
*custos:F	*	*
!LO:TX:t=P:problem=kreska pseudotaktowa	!	!
2G\	-fun-	.
!LO:LB:g=original	!	!
=60-	=60-	=60-
2F,<\	-dens	.
2A\	mor-	.
2AA/	.	.
=61-	=61-	=61-
!LO:TX:t=P:problem=kreska pseudotaktowa	!	!
1.D,<	-tem	.
=62-	=62-	=62-
*	*ij	*
2.D/	et	.
4C/	con-	.
!LO:TX:t=P:problem=kreska pseudotaktowa	!	!
2BB-/	-fun-	.
=63-	=63-	=63-
2AA/	-dens	.
1C	mor-	.
=64-	=64-	=64-
*M2/1	*	*
*met(c)	*	*
4GG,</	-tem	.
*	*Xij	*
4F\	do-	.
4B-\	-na-	.
!LO:TX:t=P:problem=kreska pseudotaktowa	!	!
4A\	-vit	.
4B-\	no-	.
8F,<\	-bis	.
*	*ij	*
8F\	do-	.
4D/	-na-	.
!LO:TX:t=P:problem=kreska pseudotaktowa	!	!
4AA/	-vit	.
=65-	=65-	=65-
4BB-/	no-	.
8FF,</	-bis	.
*	*Xij	*
8F\	do-	.
4B-\	-na-	.
!LO:TX:t=P:problem=kreska pseudotaktowa	!	!
4A\	-vit	.
4G\	no-	.
8F#X\	-bis	.
8D\	do-	.
4BB-/	-na-	.
*custos:GG	*	*
!LO:TX:t=P:problem=kreska pseudotaktowa	!	!
4FF#X/	-vit	.
!LO:LB:g=original	!	!
=66-	=66-	=66-
4GG/	no-	.
4D,<\	-bis	.
4G\	Vi-	.
!LO:TX:t=P:problem=kreska pseudotaktowa	!	!
4F#X\	-tam	.
4B-\	sem-	.
4A\	-pi-	.
(4G\	-ter-	.
!LO:TX:t=P:problem=kreska pseudotaktowa	!	!
4F#X\)	.	.
=67-	=67-	=67-
4.G,<\	-na	.
8G\	do-	.
4C/	-na-	.
!LO:TX:t=P:problem=kreska pseudotaktowa	!	!
4GG/	-vit	.
4C/	no-	.
8G,<\	-bis	.
8G\	do-	.
4E-X\	-na-	.
!LO:TX:t=P:problem=kreska pseudotaktowa	!	!
4BBn/	-vit	.
=68-	=68-	=68-
4C/	no-	.
4GG/	-bis	.
4C/	Vi-	.
!LO:TX:t=P:problem=kreska pseudotaktowa	!	!
4G\	-ta(m)	.
2C/	sem-	.
!LO:TX:t=P:problem=kreska pseudotaktowa	!	!
2BBn/	-pi-	.
=69-	=69-	=69-
1C	-ter-	.
0.GG;	-nam	.
==	==	==
*-	*-	*-
!!!RDF**kern: < = below
!!!ENC: Marta Lawrence
!!!END: 2021-02-23
!!!ENC: Marcin Jachim
!!!END: 2021-02-06
